app/assets/images/claims.svg

<?xml version="1.0" encoding="UTF-8"?>
<svg width="45px" height="45px" viewBox="0 0 45 45" version="1.1" xmlns="http://www.w3.org/2000/svg" xmlns:xlink="http://www.w3.org/1999/xlink">
    <!-- Generator: Sketch 45.1 (43504) - http://www.bohemiancoding.com/sketch -->
    <title>claims</title>
    <desc>Created with Sketch.</desc>
    <defs>
        <polygon id="path-1" points="0 44.3805327 44.4249577 44.3805327 44.4249577 0 0 0"></polygon>
    </defs>
    <g id="Customer-Service" stroke="none" stroke-width="1" fill="none" fill-rule="evenodd">
        <g id="CustomerService_Desktop" transform="translate(-486.000000, -1574.000000)">
            <g id="claims" transform="translate(479.000000, 1570.000000)">
                <g transform="translate(7.000000, 4.000000)"></g>
                <g id="noun_319705" transform="translate(7.000000, 4.000000)">
                    <g id="Group-3">
                        <mask id="mask-2" fill="white">
                            <use xlink:href="#path-1"></use>
                        </mask>
                        <g id="Clip-2"></g>
                        <path d="M41.1737912,20.0260305 L38.2387823,23.6155671 C38.1832511,23.6836854 38.1284604,23.7592078 38.0810737,23.8347302 L32.1747756,24.5714441 L37.8463619,27.2798857 C37.853766,27.2932132 37.8604298,27.3072811 37.8604298,27.3206086 L41.3596356,34.6633137 C41.4284943,34.8217627 41.4558897,34.9868754 41.4558897,35.1586519 L41.4558897,40.197923 C41.4558897,40.8990969 40.8857694,41.4632939 40.1912592,41.4632939 L36.9941431,41.4632939 C36.8157029,41.4632939 36.6365222,41.4284943 36.4721499,41.3537123 L31.9341404,39.3116451 L30.4762614,34.2094387 L29.8024829,36.4514182 C29.8024829,36.4514182 29.4041391,37.7715799 29.0324503,39.0362103 C27.1288408,39.5041532 23.2846012,40.4318944 19.1323484,41.4218306 C19.0427581,41.4492259 18.946504,41.4632939 18.8435862,41.4632939 L4.22629431,41.4632939 C4.13744439,41.4632939 4.04785406,41.4492259 3.95826373,41.4358985 L5.50573309,39.8891695 C5.77376367,39.6211389 5.77376367,39.1879956 5.50573309,38.919965 C5.23770251,38.651194 4.80455918,38.651194 4.53578818,38.919965 L2.98905924,40.4659536 C2.97573175,40.3771036 2.96166385,40.2875133 2.96166385,40.197923 L2.96166385,38.55494 C2.96166385,38.4105588 2.98239549,38.2728415 3.03052253,38.1358645 L5.86261358,30.0431181 L12.951356,27.211027 L9.87788934,27.0251826 C9.87788934,27.0251826 7.53373241,26.8882056 5.23029835,26.7230929 C4.70090094,26.0693056 4.00713118,25.2237506 3.25042607,24.2893456 C3.06458167,24.0687017 2.96166385,23.7873436 2.96166385,23.497841 L2.96166385,15.3851033 C3.58065159,15.7153288 4.00713118,15.9426365 4.00713118,15.9426365 L5.53312848,16.7674599 L4.60464687,13.9620238 L17.3997751,13.9620238 L17.3997751,27.9951275 L19.462574,25.9315882 L22.2124788,28.6822335 L24.9623837,25.9315882 L27.0251826,27.9951275 L27.0251826,13.9620238 L41.4632939,13.9620238 L41.4632939,19.2219388 C41.4632939,19.5173647 41.3596356,19.7994632 41.1737912,20.0260305 Z M8.54662145,3.7294752 C9.18115792,3.97751455 9.71425742,4.18631185 9.71425742,4.18631185 L10.3872955,4.44693827 L10.7552823,2.96166385 L16.2891512,2.96166385 L16.2891512,11.8466554 L4.05303697,11.8466554 L3.850163,11.2372931 L8.54662145,3.7294752 Z M18.510399,13.3274873 L19.250815,13.3274873 C19.250815,13.7347161 19.5840022,14.0679033 19.991231,14.0679033 C20.3984597,14.0679033 20.7316469,13.7347161 20.7316469,13.3274873 L23.6933108,13.3274873 C23.6933108,13.7347161 24.026498,14.0679033 24.4337267,14.0679033 C24.8409555,14.0679033 25.1741427,13.7347161 25.1741427,13.3274873 L25.9145587,13.3274873 L25.9145587,24.8705722 L25.1741427,24.1301562 L22.2124788,27.09182 L19.250815,24.1301562 L18.510399,24.8705722 L18.510399,13.3274873 Z M22.2124788,1.48083192 L25.9145587,1.48083192 L25.9145587,11.8466554 L18.510399,11.8466554 L18.510399,1.48083192 L22.2124788,1.48083192 Z M33.2209834,2.96166385 L32.9418465,4.35142461 L35.3156201,4.01527576 L40.2149525,11.8466554 L27.3953906,11.8466554 L27.3953906,2.96166385 L33.2209834,2.96166385 Z M37.3836019,1.10321978 L35.7324743,1.34015289 L35.9990241,0 L9.41809103,0 L9.11452049,1.2290905 C8.78133331,1.09581562 8.37410453,0.940328271 7.96687575,0.77743676 L7.3893513,0.547907812 L0.895903314,10.9433479 L1.67334007,13.2830624 C1.48823608,13.1868083 1.28832377,13.08315 1.0810073,12.9720876 L0,12.4093715 L0,23.5896525 C0,24.2412186 0.229528948,24.8779763 0.636757727,25.3888633 C1.55487352,26.5142956 2.3841394,27.5286655 2.97647217,28.2542731 L3.18378864,28.5060145 L3.5021675,28.528227 C4.1981585,28.5800561 4.90155367,28.6244811 5.56052387,28.668906 L3.43553006,29.5203844 L0.162891512,38.871838 C0.0518291173,39.1754085 0,39.4863832 0,39.8121663 L0,41.5817604 C0,43.1514422 1.27351545,44.4249577 2.84319729,44.4249577 L18.5844406,44.4249577 C18.8065654,44.4249577 19.0286902,44.3953411 19.2434108,44.3435119 C24.0413063,43.2032714 28.4541854,42.1222641 30.3274378,41.6706103 L30.7420707,41.5669521 L30.8605373,41.1523191 C30.9345789,40.9079819 31.0086205,40.6562405 31.0752579,40.404499 L31.4454659,41.6928228 L36.9541606,44.1732163 C37.3243686,44.3361078 37.7167891,44.4249577 38.1240179,44.4249577 L41.5743562,44.4249577 C43.1440381,44.4249577 44.4175535,43.1514422 44.4175535,41.5817604 L44.4175535,36.1545114 C44.4175535,35.7768993 44.3435119,35.3992871 44.1806204,35.021675 L40.404499,27.0844159 C40.3970949,27.0399909 40.3822865,26.995566 40.3748824,26.951141 L40.2860325,26.625358 L38.1388262,25.5961798 L40.26382,25.32963 L40.4341157,24.9594221 C40.4859448,24.8409555 40.5451781,24.7447014 40.6118155,24.6632557 L43.7733917,20.7982844 C44.1954288,20.2873973 44.4249577,19.6506396 44.4249577,18.9916694 L44.4249577,12.3723507 L37.3836019,1.10321978 L37.3836019,1.10321978 Z" id="Fill-1" fill="#0A0B09" mask="url(#mask-2)"></path>
                    </g>
                    <path d="M22.2124788,1.48083192 C22.6211885,1.48083192 22.9528948,1.81253827 22.9528948,2.22124788 C22.9528948,2.6299575 22.6211885,2.96166385 22.2124788,2.96166385 C21.8037692,2.96166385 21.4720629,2.6299575 21.4720629,2.22124788 C21.4720629,1.81253827 21.8037692,1.48083192 22.2124788,1.48083192" id="Fill-4" fill="#0A0B09"></path>
                    <path d="M19.991231,3.70207981 C20.3999406,3.70207981 20.7316469,4.03378616 20.7316469,4.44249577 C20.7316469,4.85120538 20.3999406,5.18291173 19.991231,5.18291173 C19.5825214,5.18291173 19.250815,4.85120538 19.250815,4.44249577 C19.250815,4.03378616 19.5825214,3.70207981 19.991231,3.70207981" id="Fill-5" fill="#0A0B09"></path>
                    <path d="M19.991231,8.14457558 C20.3999406,8.14457558 20.7316469,8.47628193 20.7316469,8.88499154 C20.7316469,9.29370115 20.3999406,9.6254075 19.991231,9.6254075 C19.5825214,9.6254075 19.250815,9.29370115 19.250815,8.88499154 C19.250815,8.47628193 19.5825214,8.14457558 19.991231,8.14457558" id="Fill-6" fill="#0A0B09"></path>
                    <path d="M22.2124788,5.92332769 C22.6211885,5.92332769 22.9528948,6.25503404 22.9528948,6.66374365 C22.9528948,7.07245327 22.6211885,7.40415962 22.2124788,7.40415962 C21.8037692,7.40415962 21.4720629,7.07245327 21.4720629,6.66374365 C21.4720629,6.25503404 21.8037692,5.92332769 22.2124788,5.92332769" id="Fill-7" fill="#0A0B09"></path>
                    <path d="M24.4337267,3.70207981 C24.8431768,3.70207981 25.1741427,4.03378616 25.1741427,4.44249577 C25.1741427,4.85120538 24.8431768,5.18291173 24.4337267,5.18291173 C24.0242767,5.18291173 23.6933108,4.85120538 23.6933108,4.44249577 C23.6933108,4.03378616 24.0242767,3.70207981 24.4337267,3.70207981" id="Fill-8" fill="#0A0B09"></path>
                    <path d="M24.4337267,8.14457558 C24.8431768,8.14457558 25.1741427,8.47628193 25.1741427,8.88499154 C25.1741427,9.29370115 24.8431768,9.6254075 24.4337267,9.6254075 C24.0242767,9.6254075 23.6933108,9.29370115 23.6933108,8.88499154 C23.6933108,8.47628193 24.0242767,8.14457558 24.4337267,8.14457558" id="Fill-9" fill="#0A0B09"></path>
                    <path d="M22.2124788,10.3658235 C22.6211885,10.3658235 22.9528948,10.6975298 22.9528948,11.1062394 C22.9528948,11.514949 22.6211885,11.8466554 22.2124788,11.8466554 C21.8037692,11.8466554 21.4720629,11.514949 21.4720629,11.1062394 C21.4720629,10.6975298 21.8037692,10.3658235 22.2124788,10.3658235" id="Fill-10" fill="#0A0B09"></path>
                    <path d="M19.991231,17.0295671 C20.3999406,17.0295671 20.7316469,17.3612735 20.7316469,17.7699831 C20.7316469,18.1786927 20.3999406,18.510399 19.991231,18.510399 C19.5825214,18.510399 19.250815,18.1786927 19.250815,17.7699831 C19.250815,17.3612735 19.5825214,17.0295671 19.991231,17.0295671" id="Fill-11" fill="#0A0B09"></path>
                    <path d="M22.2124788,14.8083192 C22.6211885,14.8083192 22.9528948,15.1400256 22.9528948,15.5487352 C22.9528948,15.9574448 22.6211885,16.2891512 22.2124788,16.2891512 C21.8037692,16.2891512 21.4720629,15.9574448 21.4720629,15.5487352 C21.4720629,15.1400256 21.8037692,14.8083192 22.2124788,14.8083192" id="Fill-12" fill="#0A0B09"></path>
                    <path d="M24.4337267,17.0295671 C24.8431768,17.0295671 25.1741427,17.3612735 25.1741427,17.7699831 C25.1741427,18.1786927 24.8431768,18.510399 24.4337267,18.510399 C24.0242767,18.510399 23.6933108,18.1786927 23.6933108,17.7699831 C23.6933108,17.3612735 24.0242767,17.0295671 24.4337267,17.0295671" id="Fill-13" fill="#0A0B09"></path>
                    <path d="M22.2124788,19.250815 C22.6211885,19.250815 22.9528948,19.5825214 22.9528948,19.991231 C22.9528948,20.3999406 22.6211885,20.7316469 22.2124788,20.7316469 C21.8037692,20.7316469 21.4720629,20.3999406 21.4720629,19.991231 C21.4720629,19.5825214 21.8037692,19.250815 22.2124788,19.250815" id="Fill-14" fill="#0A0B09"></path>
                    <path d="M19.991231,21.4720629 C20.3999406,21.4720629 20.7316469,21.8037692 20.7316469,22.2124788 C20.7316469,22.6211885 20.3999406,22.9528948 19.991231,22.9528948 C19.5825214,22.9528948 19.250815,22.6211885 19.250815,22.2124788 C19.250815,21.8037692 19.5825214,21.4720629 19.991231,21.4720629" id="Fill-15" fill="#0A0B09"></path>
                    <path d="M22.2124788,23.6933108 C22.6211885,23.6933108 22.9528948,24.0242767 22.9528948,24.4337267 C22.9528948,24.8431768 22.6211885,25.1741427 22.2124788,25.1741427 C21.8037692,25.1741427 21.4720629,24.8431768 21.4720629,24.4337267 C21.4720629,24.0242767 21.8037692,23.6933108 22.2124788,23.6933108" id="Fill-16" fill="#0A0B09"></path>
                    <path d="M24.4337267,21.4720629 C24.8431768,21.4720629 25.1741427,21.8037692 25.1741427,22.2124788 C25.1741427,22.6211885 24.8431768,22.9528948 24.4337267,22.9528948 C24.0242767,22.9528948 23.6933108,22.6211885 23.6933108,22.2124788 C23.6933108,21.8037692 24.0242767,21.4720629 24.4337267,21.4720629" id="Fill-17" fill="#0A0B09"></path>
                </g>
            </g>
        </g>
    </g>
</svg>

<svg width="45" height="45" xmlns="http://www.w3.org/2000/svg"><g fill-rule="nonzero" fill="#0A0B09"><path d="M41.174 20.026l-2.935 3.59c-.056.068-.11.143-.158.219l-5.906.736 5.671 2.709a.09.09 0 0 1 .014.04l3.5 7.343c.068.159.096.324.096.496v5.039c0 .701-.57 1.265-1.265 1.265h-3.197a1.26 1.26 0 0 1-.522-.11l-4.538-2.041-1.458-5.103-.674 2.242s-.398 1.32-.77 2.585c-1.903.468-5.747 1.396-9.9 2.386a.983.983 0 0 1-.288.041H4.226c-.089 0-.178-.014-.268-.027l1.548-1.547a.685.685 0 1 0-.97-.969l-1.547 1.546c-.013-.089-.027-.178-.027-.268v-1.643c0-.144.02-.282.069-.42l2.832-8.092 7.088-2.832-3.073-.186s-2.344-.137-4.648-.302c-.53-.654-1.223-1.5-1.98-2.434a1.231 1.231 0 0 1-.288-.791v-8.113l1.045.558 1.526.824-.928-2.805H17.4v14.033l2.063-2.063 2.75 2.75 2.75-2.75 2.062 2.063V13.962h14.438v5.26c0 .295-.103.577-.29.804zM8.84 3.729l1.24.457.715.26.391-1.484h5.88v8.885h-13l-.216-.61L8.84 3.73zm9.67 9.598h.74c0 .408.334.74.741.74s.74-.332.74-.74h2.962c0 .408.333.74.74.74.408 0 .741-.332.741-.74h.74v11.544l-.74-.74-2.962 2.96-2.961-2.96-.74.74V13.327zm3.702-11.846h3.703v10.366H18.51V1.48h3.702zm10.793 1.48l-.287 1.39 2.447-.336 5.05 7.832H27V2.962h6.005zm2.727-1.62L36 0H9.419l-.304 1.23c-.334-.134-.74-.29-1.148-.453l-.578-.23L.896 10.944l.777 2.34c-.185-.096-.385-.2-.592-.31L0 12.408v11.18a2.9 2.9 0 0 0 .637 1.8l2.34 2.865.207.252.318.022c.696.052 1.4.096 2.059.14l-2.125.852-3.273 9.352a2.702 2.702 0 0 0-.163.94v1.77a2.844 2.844 0 0 0 2.843 2.843h15.741c.223 0 .445-.03.66-.081 4.797-1.14 9.21-2.222 11.083-2.673l.415-.104.119-.415c.074-.244.148-.496.214-.748l.37 1.289 5.51 2.48c.37.163.762.252 1.169.252h3.45a2.844 2.844 0 0 0 2.844-2.843v-5.427c0-.378-.074-.756-.237-1.133l-3.777-7.938c-.007-.044-.022-.088-.03-.133l-.088-.326-2.147-1.029 2.125-.266.17-.37c.052-.119.111-.215.178-.297l3.161-3.865c.422-.51.652-1.147.652-1.806v-6.62L37.384 1.103l-1.652.237z"/><path d="M22.212 1.48a.74.74 0 1 1 0 1.482.74.74 0 0 1 0-1.481zm-2.22 2.222a.74.74 0 1 1-.001 1.481.74.74 0 0 1 0-1.48zm0 4.443a.74.74 0 1 1-.001 1.48.74.74 0 0 1 0-1.48zm2.22-2.222a.74.74 0 1 1 0 1.482.74.74 0 0 1 0-1.482zm2.222-2.22a.74.74 0 1 1 0 1.48.74.74 0 0 1 0-1.48zm0 4.442a.74.74 0 1 1 0 1.48.74.74 0 0 1 0-1.48zm-2.222 2.22a.74.74 0 1 1 0 1.482.74.74 0 0 1 0-1.481zm-2.22 6.665a.74.74 0 1 1-.001 1.48.74.74 0 0 1 0-1.48zm2.22-2.222a.74.74 0 1 1 0 1.482.74.74 0 0 1 0-1.482zm2.222 2.222a.74.74 0 1 1 0 1.48.74.74 0 0 1 0-1.48zm-2.222 2.22a.74.74 0 1 1 0 1.482.74.74 0 0 1 0-1.481zm-2.22 2.222a.74.74 0 1 1-.001 1.481.74.74 0 0 1 0-1.48zm2.22 2.221a.74.74 0 1 1 0 1.48.74.74 0 0 1 0-1.48zm2.222-2.22a.74.74 0 1 1 0 1.48.74.74 0 0 1 0-1.48z"/></g></svg>
